X: 68
T:Blackbird, The
R:hornpipe
D:De Danaan
Z:B part slightly modified version of Norbeck's
M:C|
L:1/8
K:Dmix
DE|F2FA GFD2|de (3fed dcAF|G2GF GFDE|FGAF GBAG|
F2FA GFD2|de (3fed dcAG|AdcA GcAG|F2D2 D2:|
|:fg|ag (3fed gfe^c|d^cde fdA2|ag (3fed gfeg|fagf e2 (3efg|
afge fde^c|d2de fdAG|AdcA GcAG|F2D2 D2:|

